X: 161203
T: Paddy O'Brien's #1 %("gan ainm")
T: Easter Sunday
M: 4/4
L: 1/8
C: Paddy O'Brien
R: reel
K: Am
G|EAAB cBcA|BG~G2 BcdB|AEAB cBce|dBGA BA~A2|
EAAB cBce|dB~B2 gedg|eaaf ~g2 ab|1 gedB A3 :|2\
gedB A2||
Bd|eaag edBA|BG~G2 BcdB|ABcd eaaf| ~g2 fa gedg|
ea ~a2 bg~ g2|aged BedB|AGEF GABd|1 gedB A2 :|2\
gedB A3||
